X:1
T:Title
%%score 1 { 2 | 3 }
L:1/8
Q:1/4=100
M:4/4
K:Eb
V:1 treble nm="Grand Piano, Soprano"
V:2 bass nm="Choir Pad, From the Cyber Hymnal™"
V:3 bass 
V:1
 [GB][FA][EG][EG] [EG][DF] E2 | [_DF]2 [CE]4 [CE]2 | [CE][CF][EG][EG] [EG][DA] [EB]2 | %3
w: By~Edmund~Simon~Lorenz * * * * * *|||
 [Ec]2 [DF]6 | [GB][FA][EG][EG] [EG][DF] E2 | [_DF][DF][CE][CA] [CA][=DB] [Ec]2 | %6
w: |||
 [Ec][Ec][Ec][EB] [EG]E [EG]2 | [DF]2 E6 | z2 [CE]2 [EA]>[EG] [EA][Ec] | [DB][CA] [EB]6 | %10
w: ||||
 z2 [E=A]2 [EA]>[DB] [Fc][Fc] | [FB][Fc] [Fd]6 | [Ac][Ad][Ge][Ge] [Ge][Ac] [GB]2 | %13
w: |||
 [EG][_DF][CE][CA] [CA][=DB] [Ec]2 | [Ec][Ec][Ec][EB] [EG]E [EG]2 | [DF]2 E6- | E2 z2 z4 |] %17
w: ||||
V:2
 B,B,B,B, B,A, G,2 | G,2 A,4 E,2 | A,A,B,B, B,B, E2 | C2 B,6 | B,B,B,B, B,A, G,2 | %5
 G,G,A,A, A,A, A,2 | A,A,G,G, B,G, B,2 | A,2 G,6 | z2 A,2 C>B, CA, | A,A,G,G, G,G, G,2 | %10
 z2 F,2 C>B, =A,A, | =A,A,B,B, B,B, B,2 | B,B,B,B, B,E E2 | B,G,A,A, A,A, A,2 | A,A,G,G, B,G, B,2 | %15
 A,2 G,6- | G,2 z2 z4 |] %17
V:3
 E,E,E,E, E,E, E,2 | E,2 A,,4 A,,2 | A,,A,,E,E, E,F, F,2 | A,2 z2 z4 | B,,B,,E,E, E,E, E,2 | %5
 E,E,A,,A,, A,,A,, A,,2 | A,,A,,B,,B,, B,,B,, B,,2 | B,,2 E,6 | z2 A,,2 A,,>A,, A,,A,, | %9
 A,,A,,E,E, E,E, E,2 | z4 F,>F, F,E, | D,F, z2 z4 | z2 E,E, E,E, E,2 | E,E,A,,A,, A,,A,, A,,2 | %14
 A,,A,,B,,B,, B,,B,, B,,2 | B,,2 E,6- | E,2 z2 z4 |] %17

